X:21
T:Li gr?ci dou roumavagi
O:France
A:Provence
C:Anonyme
R:Air
S:Carnet du tambourinaire Ginas (1924)
Z:Transcrit et/ou corrig? par Michel BELLON - 2005-07-23
Z:Pour toute observation mailto:galouvielle@free.fr
M:6/8
L:1/8
K:Bb
FFB | BFd dBf | fed Bfd | c2eA2c | B3 :| ddd | c2c A2F | cAF dfd | cAc BAG |
F3 FFB | BFd dBf | fed efg | fdB BAB | Hd2c efg | fdB ecA | B3 |]
<end>
<start>
